web/packages/design/src/ResourceIcon/assets/google.svg

<svg width="72" height="72" viewBox="0 0 72 72" fill="none" xmlns="http://www.w3.org/2000/svg">
<path d="M71.5598 36.8182C71.5598 34.2655 71.3308 31.8109 70.9053 29.4546H37V43.3963H56.3745C55.5236 47.88 52.9708 51.6763 49.1418 54.229V63.2944H60.8254C67.6326 57.0108 71.5598 47.7818 71.5598 36.8182Z" fill="#4285F4"/>
<path d="M36.9984 72.0002C46.7183 72.0002 54.8674 68.7929 60.8237 63.2948L49.1402 54.2294C45.9329 56.3893 41.842 57.6984 36.9984 57.6984C27.6384 57.6984 19.6857 51.3821 16.8385 42.873H4.86035V52.1676C10.784 63.9166 22.9257 72.0002 36.9984 72.0002Z" fill="#34A853"/>
<path d="M16.8399 42.8392C16.1199 40.6792 15.6945 38.3883 15.6945 35.9992C15.6945 33.6101 16.1199 31.3192 16.8399 29.1592V19.8647H4.8618C2.40727 24.7084 1 30.1738 1 35.9992C1 41.8246 2.40727 47.2901 4.8618 52.1337L14.189 44.8683L16.8399 42.8392Z" fill="#FBBC05"/>
<path d="M36.9984 14.3345C42.3002 14.3345 47.0129 16.1672 50.7765 19.7017L61.0856 9.39269C54.8347 3.56726 46.7183 0 36.9984 0C22.9257 0 10.784 8.0836 4.86035 19.8654L16.8385 29.1599C19.6857 20.6508 27.6384 14.3345 36.9984 14.3345Z" fill="#EA4335"/>
</svg>

<svg xmlns="http://www.w3.org/2000/svg" width="72" height="72" fill="none" viewBox="0 0 72 72"><path fill="#4285f4" d="M71.56 36.818a41.4 41.4 0 0 0-.655-7.363H37v13.941h19.374c-.85 4.484-3.403 8.28-7.232 10.833v9.065h11.683c6.808-6.283 10.735-15.512 10.735-26.476"/><path fill="#34a853" d="M36.998 72c9.72 0 17.87-3.207 23.826-8.705L49.14 54.229c-3.207 2.16-7.298 3.47-12.142 3.47-9.36 0-17.312-6.317-20.16-14.826H4.86v9.295C10.784 63.917 22.926 72 36.998 72"/><path fill="#fbbc05" d="M16.84 42.84c-.72-2.16-1.146-4.452-1.146-6.84 0-2.39.426-4.68 1.146-6.84v-9.295H4.862A35.56 35.56 0 0 0 1 35.999a35.55 35.55 0 0 0 3.862 16.135l9.327-7.266z"/><path fill="#ea4335" d="M36.998 14.335c5.302 0 10.015 1.832 13.779 5.367l10.309-10.31C54.835 3.568 46.718 0 36.998 0 22.926 0 10.784 8.084 4.86 19.865l11.98 9.295c2.847-8.51 10.8-14.825 20.16-14.825"/></svg>
